src/svg/mute.svg

<svg height="16" width="16" xmlns="http://www.w3.org/2000/svg" viewBox="0 0 16 16">
  <path d="M8 2.81v10.38c0 0.67-0.81 1-1.28 0.53L3 10H1c-0.55 0-1-0.45-1-1V7c0-0.55 0.45-1 1-1h2l3.72-3.72c0.47-0.47 1.28-0.14 1.28 0.53z m7.53 3.22l-1.06-1.06-1.97 1.97-1.97-1.97-1.06 1.06 1.97 1.97-1.97 1.97 1.06 1.06 1.97-1.97 1.97 1.97 1.06-1.06-1.97-1.97 1.97-1.97z" />
</svg>

<?xml version="1.0" encoding="UTF-8" standalone="no"?>
<svg width="16px" height="16px" viewBox="0 0 16 16" version="1.1" xmlns="http://www.w3.org/2000/svg" xmlns:xlink="http://www.w3.org/1999/xlink">
    <!-- Generator: Sketch 3.7.1 (28215) - http://www.bohemiancoding.com/sketch -->
    <title>mute</title>
    <desc>Created with Sketch.</desc>
    <defs></defs>
    <g id="Octicons" stroke="none" stroke-width="1" fill="none" fill-rule="evenodd">
        <g id="mute" fill="#000000">
            <path d="M8,2.81 L8,13.19 C8,13.86 7.19,14.19 6.72,13.72 L3,10 L1,10 C0.45,10 0,9.55 0,9 L0,7 C0,6.45 0.45,6 1,6 L3,6 L6.72,2.28 C7.19,1.81 8,2.14 8,2.81 L8,2.81 Z M15.53,6.03 L14.47,4.97 L12.5,6.94 L10.53,4.97 L9.47,6.03 L11.44,8 L9.47,9.97 L10.53,11.03 L12.5,9.06 L14.47,11.03 L15.53,9.97 L13.56,8 L15.53,6.03 L15.53,6.03 Z" id="Shape"></path>
        </g>
    </g>
</svg>
